humanity-icon-theme/Humanity/devices/128/multimedia-player-ipod-touch.svg

<?xml version="1.0" encoding="UTF-8" standalone="no"?>
<!-- Created with Inkscape (http://www.inkscape.org/) -->
<svg
   xmlns:svg="http://www.w3.org/2000/svg"
   xmlns="http://www.w3.org/2000/svg"
   xmlns:xlink="http://www.w3.org/1999/xlink"
   version="1.0"
   width="128"
   height="128"
   id="svg3311">
  <defs
     id="defs3313">
    <linearGradient
       id="linearGradient3319">
      <stop
         id="stop3321"
         style="stop-color:#ffffff;stop-opacity:1"
         offset="0" />
      <stop
         id="stop3323"
         style="stop-color:#ffffff;stop-opacity:0"
         offset="1" />
    </linearGradient>
    <linearGradient
       id="linearGradient3301">
      <stop
         id="stop3303"
         style="stop-color:#323232;stop-opacity:1"
         offset="0" />
      <stop
         id="stop3305"
         style="stop-color:#3c3c3c;stop-opacity:1"
         offset="1" />
    </linearGradient>
    <linearGradient
       id="linearGradient51765">
      <stop
         id="stop51767"
         style="stop-color:#000000;stop-opacity:1"
         offset="0" />
      <stop
         id="stop51769"
         style="stop-color:#000000;stop-opacity:0"
         offset="1" />
    </linearGradient>
    <linearGradient
       id="linearGradient47870">
      <stop
         id="stop47872"
         style="stop-color:#000000;stop-opacity:0"
         offset="0" />
      <stop
         id="stop47878"
         style="stop-color:#000000;stop-opacity:1"
         offset="0.5" />
      <stop
         id="stop47874"
         style="stop-color:#000000;stop-opacity:0"
         offset="1" />
    </linearGradient>
    <linearGradient
       id="linearGradient3176">
      <stop
         id="stop3178"
         style="stop-color:#aaaaaa;stop-opacity:1"
         offset="0" />
      <stop
         id="stop3180"
         style="stop-color:#6c6c6c;stop-opacity:1"
         offset="1" />
    </linearGradient>
    <linearGradient
       id="linearGradient3188">
      <stop
         id="stop3190"
         style="stop-color:#404040;stop-opacity:1"
         offset="0" />
      <stop
         id="stop3192"
         style="stop-color:#282828;stop-opacity:1"
         offset="1" />
    </linearGradient>
    <linearGradient
       id="linearGradient3219">
      <stop
         id="stop3221"
         style="stop-color:#3c3c3c;stop-opacity:1"
         offset="0" />
      <stop
         id="stop3223"
         style="stop-color:#313131;stop-opacity:1"
         offset="1" />
    </linearGradient>
    <linearGradient
       id="linearGradient3208">
      <stop
         id="stop3210"
         style="stop-color:#ffffff;stop-opacity:1"
         offset="0" />
      <stop
         id="stop3212"
         style="stop-color:#ffffff;stop-opacity:0"
         offset="1" />
    </linearGradient>
    <linearGradient
       id="linearGradient3246">
      <stop
         id="stop3248"
         style="stop-color:#e6e6e6;stop-opacity:1"
         offset="0" />
      <stop
         id="stop3250"
         style="stop-color:#e6e6e6;stop-opacity:0"
         offset="1" />
    </linearGradient>
    <linearGradient
       id="linearGradient3260">
      <stop
         id="stop3262"
         style="stop-color:#333333;stop-opacity:1"
         offset="0" />
      <stop
         id="stop3264"
         style="stop-color:#3e3e3e;stop-opacity:1"
         offset="1" />
    </linearGradient>
    <linearGradient
       x1="32.084972"
       y1="-14.402173"
       x2="32.084972"
       y2="-5.5633383"
       id="linearGradient3256"
       xlink:href="#linearGradient47870"
       gradientUnits="userSpaceOnUse"
       gradientTransform="matrix(0.6655121,0,0,0.4518781,-54.615029,45.875214)" />
    <radialGradient
       cx="51.4375"
       cy="-12.203125"
       r="2.171875"
       fx="51.4375"
       fy="-12.203125"
       id="radialGradient3258"
       xlink:href="#linearGradient51765"
       gradientUnits="userSpaceOnUse"
       gradientTransform="matrix(1.8417267,-5.1455073e-7,6.2669991e-7,0.9200109,-115.2312,52.586443)" />
    <radialGradient
       cx="51.4375"
       cy="-12.203125"
       r="2.171875"
       fx="51.4375"
       fy="-12.203125"
       id="radialGradient3260"
       xlink:href="#linearGradient51765"
       gradientUnits="userSpaceOnUse"
       gradientTransform="matrix(-1.8417267,-5.8450938e-8,-1.2125708e-7,0.9200109,52.236437,52.586419)" />
    <linearGradient
       x1="14"
       y1="2"
       x2="32"
       y2="40"
       id="linearGradient3283"
       xlink:href="#linearGradient3246"
       gradientUnits="userSpaceOnUse"
       gradientTransform="matrix(3.1249998,0,0,2.8571429,-10.875,-2.2857142)" />
    <linearGradient
       x1="24"
       y1="4"
       x2="24"
       y2="48.301048"
       id="linearGradient3286"
       xlink:href="#linearGradient3208"
       gradientUnits="userSpaceOnUse"
       gradientTransform="matrix(2.9999916,0,0,2.8611068,-7.9998082,-1.3749105)" />
    <radialGradient
       cx="24.000002"
       cy="22.5"
       r="10"
       fx="24.000002"
       fy="22.5"
       id="radialGradient3289"
       xlink:href="#linearGradient3219"
       gradientUnits="userSpaceOnUse"
       gradientTransform="matrix(2.8947288,0,0,3.6865315,-5.4734974,-22.946992)" />
    <linearGradient
       x1="23.052357"
       y1="3"
       x2="23.052357"
       y2="42.073647"
       id="linearGradient3292"
       xlink:href="#linearGradient3188"
       gradientUnits="userSpaceOnUse"
       gradientTransform="matrix(2.8095172,0,0,2.7631542,-3.4284135,0.8290293)" />
    <linearGradient
       x1="24"
       y1="41.209427"
       x2="24"
       y2="44.02306"
       id="linearGradient3295"
       xlink:href="#linearGradient3176"
       gradientUnits="userSpaceOnUse"
       gradientTransform="matrix(2.5999952,0,0,2.6428543,1.6001173,3.5357749)" />
    <linearGradient
       x1="64"
       y1="18"
       x2="64"
       y2="20"
       id="linearGradient3307"
       xlink:href="#linearGradient3301"
       gradientUnits="userSpaceOnUse" />
    <linearGradient
       x1="24"
       y1="37"
       x2="24"
       y2="39"
       id="linearGradient3311"
       xlink:href="#linearGradient3260"
       gradientUnits="userSpaceOnUse"
       gradientTransform="matrix(3.0168832,0,0,2.921175,-8.7581427,-4.7919377)" />
    <linearGradient
       x1="66.178009"
       y1="8"
       x2="66.178009"
       y2="119.2937"
       id="linearGradient3325"
       xlink:href="#linearGradient3319"
       gradientUnits="userSpaceOnUse" />
  </defs>
  <g
     transform="matrix(2.4,0,0,3.5000005,139.59372,-29.764429)"
     id="g3423">
    <rect
       width="22"
       height="3.9940758"
       x="-42.497383"
       y="39.367184"
       id="rect46899"
       style="opacity:0.3;fill:url(#linearGradient3256);fill-opacity:1;fill-rule:evenodd;stroke:none" />
    <path
       d="M -20.497383,39.36126 L -20.497383,43.357557 C -18.292362,43.342467 -16.497383,42.459765 -16.497383,41.366469 C -16.497383,40.273174 -18.292361,39.376347 -20.497383,39.36126 z"
       id="path48849"
       style="opacity:0.3;fill:url(#radialGradient3258);fill-opacity:1;fill-rule:evenodd;stroke:none" />
    <path
       d="M -42.497383,39.36126 L -42.497383,43.357557 C -44.702404,43.342467 -46.497383,42.459765 -46.497383,41.366469 C -46.497383,40.273174 -44.702405,39.376347 -42.497383,39.36126 z"
       id="path52742"
       style="opacity:0.3;fill:url(#radialGradient3260);fill-opacity:1;fill-rule:evenodd;stroke:none" />
  </g>
  <rect
     width="65.000084"
     height="111.00008"
     rx="6"
     ry="6"
     x="31.499964"
     y="7.499958"
     id="rect3166"
     style="fill:#e6e6e6;fill-opacity:1;fill-rule:nonzero;stroke:url(#linearGradient3295);stroke-width:0.99992192;stroke-linecap:butt;stroke-linejoin:round;marker:none;marker-start:none;marker-mid:none;marker-end:none;stroke-miterlimit:4;stroke-dasharray:none;stroke-dashoffset:0;stroke-opacity:1;visibility:visible;display:inline;overflow:visible;enable-background:accumulate" />
  <rect
     width="59.00008"
     height="105.00008"
     rx="3"
     ry="3"
     x="34.499962"
     y="10.499961"
     id="rect3184"
     style="fill:url(#linearGradient3292);fill-opacity:1;fill-rule:nonzero;stroke:#1a1a1a;stroke-width:0.99992192;stroke-linecap:butt;stroke-linejoin:round;marker:none;marker-start:none;marker-mid:none;marker-end:none;stroke-miterlimit:4;stroke-dasharray:none;stroke-dashoffset:0;stroke-opacity:1;visibility:visible;display:inline;overflow:visible;enable-background:accumulate" />
  <rect
     width="55.000076"
     height="71.000076"
     x="36.499962"
     y="24.499922"
     id="rect3216"
     style="fill:url(#radialGradient3289);fill-opacity:1;fill-rule:nonzero;stroke:#212121;stroke-width:0.99992156;stroke-linecap:butt;stroke-linejoin:round;marker:none;marker-start:none;marker-mid:none;marker-end:none;stroke-miterlimit:4;stroke-dasharray:none;stroke-dashoffset:0;stroke-opacity:1;visibility:visible;display:inline;overflow:visible;enable-background:accumulate" />
  <rect
     width="57.00008"
     height="103.00008"
     rx="2"
     ry="2"
     x="35.499962"
     y="11.49996"
     id="rect3196"
     style="opacity:0.2;fill:none;fill-opacity:1;fill-rule:nonzero;stroke:url(#linearGradient3286);stroke-width:0.99992186;stroke-linecap:butt;stroke-linejoin:round;marker:none;marker-start:none;marker-mid:none;marker-end:none;stroke-miterlimit:4;stroke-dasharray:none;stroke-dashoffset:0;stroke-opacity:1;visibility:visible;display:inline;overflow:visible;enable-background:accumulate" />
  <path
     d="M 36,12 L 36,112 L 86,12 L 36,12 z"
     id="rect3238"
     style="opacity:0.15;fill:url(#linearGradient3283);fill-opacity:1;fill-rule:nonzero;stroke:none;stroke-width:0.99992186;stroke-linecap:butt;stroke-linejoin:round;marker:none;marker-start:none;marker-mid:none;marker-end:none;stroke-miterlimit:4;stroke-dasharray:none;stroke-dashoffset:0;stroke-opacity:1;visibility:visible;display:inline;overflow:visible;enable-background:accumulate" />
  <rect
     width="16"
     height="2"
     rx="1"
     ry="1"
     x="56"
     y="18"
     id="rect3233"
     style="fill:url(#linearGradient3307);fill-opacity:1;fill-rule:nonzero;stroke:none;stroke-width:0.99992174;stroke-linecap:butt;stroke-linejoin:round;marker:none;marker-start:none;marker-mid:none;marker-end:none;stroke-miterlimit:4;stroke-dasharray:none;stroke-dashoffset:0;stroke-opacity:1;visibility:visible;display:inline;overflow:visible;enable-background:accumulate" />
  <rect
     width="1"
     height="2"
     rx="0.5"
     ry="1"
     x="31"
     y="28"
     id="rect3254"
     style="fill:#7f7f7f;fill-opacity:1;fill-rule:nonzero;stroke:none;stroke-width:0.99992174;stroke-linecap:butt;stroke-linejoin:round;marker:none;marker-start:none;marker-mid:none;marker-end:none;stroke-miterlimit:4;stroke-dasharray:none;stroke-dashoffset:0;stroke-opacity:1;visibility:visible;display:inline;overflow:visible;enable-background:accumulate" />
  <rect
     width="1"
     height="8"
     rx="0.5"
     ry="1"
     x="31"
     y="32"
     id="rect3256"
     style="fill:#7f7f7f;fill-opacity:1;fill-rule:nonzero;stroke:none;stroke-width:0.99992174;stroke-linecap:butt;stroke-linejoin:round;marker:none;marker-start:none;marker-mid:none;marker-end:none;stroke-miterlimit:4;stroke-dasharray:none;stroke-dashoffset:0;stroke-opacity:1;visibility:visible;display:inline;overflow:visible;enable-background:accumulate" />
  <rect
     width="1"
     height="8"
     rx="0.5"
     ry="1"
     x="7"
     y="-86"
     transform="matrix(0,1,-1,0,0,0)"
     id="rect3307"
     style="fill:#7f7f7f;fill-opacity:1;fill-rule:nonzero;stroke:none;stroke-width:0.99992174;stroke-linecap:butt;stroke-linejoin:round;marker:none;marker-start:none;marker-mid:none;marker-end:none;stroke-miterlimit:4;stroke-dasharray:none;stroke-dashoffset:0;stroke-opacity:1;visibility:visible;display:inline;overflow:visible;enable-background:accumulate" />
  <rect
     width="1"
     height="8"
     rx="0.5"
     ry="1"
     x="31"
     y="42"
     id="rect3309"
     style="fill:#7f7f7f;fill-opacity:1;fill-rule:nonzero;stroke:none;stroke-width:0.99992174;stroke-linecap:butt;stroke-linejoin:round;marker:none;marker-start:none;marker-mid:none;marker-end:none;stroke-miterlimit:4;stroke-dasharray:none;stroke-dashoffset:0;stroke-opacity:1;visibility:visible;display:inline;overflow:visible;enable-background:accumulate" />
  <path
     d="M 68,106 C 68,108.20914 66.209139,110 64.000001,110 C 61.790861,110 60,108.20914 60,106 C 60,103.79086 61.790861,102 64.000001,102 C 66.209139,102 68,103.79086 68,106 z"
     id="path3309"
     style="fill:url(#linearGradient3311);fill-opacity:1;fill-rule:nonzero;stroke:none;stroke-width:0.99992174;stroke-linecap:butt;stroke-linejoin:round;marker:none;marker-start:none;marker-mid:none;marker-end:none;stroke-miterlimit:4;stroke-dasharray:none;stroke-dashoffset:0;stroke-opacity:1;visibility:visible;display:inline;overflow:visible;enable-background:accumulate" />
  <rect
     width="3.000078"
     height="3.0000782"
     rx="0.5635103"
     ry="0.55958492"
     x="62.499962"
     y="104.49996"
     id="rect3313"
     style="opacity:0.2;fill:none;fill-opacity:1;fill-rule:nonzero;stroke:#ffffff;stroke-width:0.9999218;stroke-linecap:butt;stroke-linejoin:round;marker:none;marker-start:none;marker-mid:none;marker-end:none;stroke-miterlimit:4;stroke-dasharray:none;stroke-dashoffset:0;stroke-opacity:1;visibility:visible;display:inline;overflow:visible;enable-background:accumulate" />
  <rect
     width="63.000076"
     height="109.00008"
     rx="5"
     ry="5"
     x="32.499962"
     y="8.4999609"
     id="rect3315"
     style="opacity:0.6;fill:none;fill-opacity:1;fill-rule:nonzero;stroke:url(#linearGradient3325);stroke-width:0.99992192;stroke-linecap:butt;stroke-linejoin:round;marker:none;marker-start:none;marker-mid:none;marker-end:none;stroke-miterlimit:4;stroke-dasharray:none;stroke-dashoffset:0;stroke-opacity:1;visibility:visible;display:inline;overflow:visible;enable-background:accumulate" />
</svg>

<?xml version="1.0" encoding="UTF-8" standalone="no"?>
<!-- Created with Inkscape (http://www.inkscape.org/) -->
<svg id="svg3311" xmlns="http://www.w3.org/2000/svg" height="128" width="128" version="1.0" xmlns:xlink="http://www.w3.org/1999/xlink">
 <defs id="defs3313">
  <linearGradient id="linearGradient51765">
   <stop id="stop51767" offset="0"/>
   <stop id="stop51769" style="stop-opacity:0" offset="1"/>
  </linearGradient>
  <linearGradient id="linearGradient3256" y2="-5.5633" gradientUnits="userSpaceOnUse" x2="32.085" gradientTransform="matrix(.66551 0 0 .45188 -54.615 45.875)" y1="-14.402" x1="32.085">
   <stop id="stop47872" style="stop-opacity:0" offset="0"/>
   <stop id="stop47878" offset=".5"/>
   <stop id="stop47874" style="stop-opacity:0" offset="1"/>
  </linearGradient>
  <radialGradient id="radialGradient3258" xlink:href="#linearGradient51765" gradientUnits="userSpaceOnUse" cy="-12.203" cx="51.438" gradientTransform="matrix(1.8417 -5.1455e-7 6.267e-7 .92001 -115.23 52.586)" r="2.1719"/>
  <radialGradient id="radialGradient3260" xlink:href="#linearGradient51765" gradientUnits="userSpaceOnUse" cy="-12.203" cx="51.438" gradientTransform="matrix(-1.8417 -5.8451e-8 -1.2126e-7 .92001 52.236 52.586)" r="2.1719"/>
  <linearGradient id="linearGradient3283" y2="40" gradientUnits="userSpaceOnUse" x2="32" gradientTransform="matrix(3.125 0 0 2.8571 -10.875 -2.2857)" y1="2" x1="14">
   <stop id="stop3248" style="stop-color:#e6e6e6" offset="0"/>
   <stop id="stop3250" style="stop-color:#e6e6e6;stop-opacity:0" offset="1"/>
  </linearGradient>
  <linearGradient id="linearGradient3286" y2="48.301" gradientUnits="userSpaceOnUse" x2="24" gradientTransform="matrix(3 0 0 2.8611 -7.9998 -1.3749)" y1="4" x1="24">
   <stop id="stop3210" style="stop-color:#fff" offset="0"/>
   <stop id="stop3212" style="stop-color:#fff;stop-opacity:0" offset="1"/>
  </linearGradient>
  <radialGradient id="radialGradient3289" gradientUnits="userSpaceOnUse" cy="22.5" cx="24" gradientTransform="matrix(2.8947 0 0 3.6865 -5.4735 -22.947)" r="10">
   <stop id="stop3221" style="stop-color:#3c3c3c" offset="0"/>
   <stop id="stop3223" style="stop-color:#313131" offset="1"/>
  </radialGradient>
  <linearGradient id="linearGradient3292" y2="42.074" gradientUnits="userSpaceOnUse" x2="23.052" gradientTransform="matrix(2.8095 0 0 2.7632 -3.4284 .82903)" y1="3" x1="23.052">
   <stop id="stop3190" style="stop-color:#404040" offset="0"/>
   <stop id="stop3192" style="stop-color:#282828" offset="1"/>
  </linearGradient>
  <linearGradient id="linearGradient3295" y2="44.023" gradientUnits="userSpaceOnUse" x2="24" gradientTransform="matrix(2.6 0 0 2.6429 1.6001 3.5358)" y1="41.209" x1="24">
   <stop id="stop3178" style="stop-color:#aaa" offset="0"/>
   <stop id="stop3180" style="stop-color:#6c6c6c" offset="1"/>
  </linearGradient>
  <linearGradient id="linearGradient3307" y2="20" gradientUnits="userSpaceOnUse" x2="64" y1="18" x1="64">
   <stop id="stop3303" style="stop-color:#323232" offset="0"/>
   <stop id="stop3305" style="stop-color:#3c3c3c" offset="1"/>
  </linearGradient>
  <linearGradient id="linearGradient3311" y2="39" gradientUnits="userSpaceOnUse" x2="24" gradientTransform="matrix(3.0169 0 0 2.9212 -8.7581 -4.7919)" y1="37" x1="24">
   <stop id="stop3262" style="stop-color:#333" offset="0"/>
   <stop id="stop3264" style="stop-color:#3e3e3e" offset="1"/>
  </linearGradient>
  <linearGradient id="linearGradient3325" y2="119.29" gradientUnits="userSpaceOnUse" x2="66.178" y1="8" x1="66.178">
   <stop id="stop3321" style="stop-color:#fff" offset="0"/>
   <stop id="stop3323" style="stop-color:#fff;stop-opacity:0" offset="1"/>
  </linearGradient>
 </defs>
 <g id="g3423" transform="matrix(2.4 0 0 3.5 139.59 -29.764)">
  <rect id="rect46899" style="opacity:.3;fill:url(#linearGradient3256);fill-rule:evenodd" height="3.9941" width="22" y="39.367" x="-42.497"/>
  <path id="path48849" style="opacity:.3;fill:url(#radialGradient3258);fill-rule:evenodd" d="m-20.497 39.361v3.997c2.205-0.016 4-0.898 4-1.992 0-1.093-1.795-1.99-4-2.005z"/>
  <path id="path52742" style="opacity:.3;fill:url(#radialGradient3260);fill-rule:evenodd" d="m-42.497 39.361v3.997c-2.205-0.016-4-0.898-4-1.992 0-1.093 1.795-1.99 4-2.005z"/>
 </g>
 <rect id="rect3166" style="stroke-linejoin:round;stroke-width:.99992;stroke:url(#linearGradient3295);fill:#e6e6e6" rx="6" ry="6" height="111" width="65" y="7.5" x="31.5"/>
 <rect id="rect3184" style="stroke-linejoin:round;stroke-width:.99992;stroke:#1a1a1a;fill:url(#linearGradient3292)" rx="3" ry="3" height="105" width="59" y="10.5" x="34.5"/>
 <rect id="rect3216" style="stroke-linejoin:round;stroke-width:.99992;stroke:#212121;fill:url(#radialGradient3289)" height="71" width="55" y="24.5" x="36.5"/>
 <rect id="rect3196" style="opacity:.2;stroke-linejoin:round;stroke-width:.99992;stroke:url(#linearGradient3286);fill:none" rx="2" ry="2" height="103" width="57" y="11.5" x="35.5"/>
 <path id="rect3238" style="opacity:.15;fill:url(#linearGradient3283)" d="m36 12v100l50-100h-50z"/>
 <rect id="rect3233" style="fill:url(#linearGradient3307)" rx="1" ry="1" height="2" width="16" y="18" x="56"/>
 <rect id="rect3254" style="fill:#7f7f7f" rx=".5" ry="1" height="2" width="1" y="28" x="31"/>
 <rect id="rect3256" style="fill:#7f7f7f" rx=".5" ry="1" height="8" width="1" y="32" x="31"/>
 <rect id="rect3307" style="fill:#7f7f7f" transform="rotate(90)" rx=".5" ry="1" height="8" width="1" y="-86" x="7"/>
 <rect id="rect3309" style="fill:#7f7f7f" rx=".5" ry="1" height="8" width="1" y="42" x="31"/>
 <path id="path3309" style="fill:url(#linearGradient3311)" d="m68 106c0 2.21-1.791 4-4 4s-4-1.79-4-4 1.791-4 4-4 4 1.79 4 4z"/>
 <rect id="rect3313" style="opacity:.2;stroke-linejoin:round;stroke-width:.99992;stroke:#fff;fill:none" rx=".56351" ry=".55958" height="3.0001" width="3.0001" y="104.5" x="62.5"/>
 <rect id="rect3315" style="opacity:.6;stroke-linejoin:round;stroke-width:.99992;stroke:url(#linearGradient3325);fill:none" rx="5" ry="5" height="109" width="63" y="8.5" x="32.5"/>
</svg>
